assets/svg/networks/wallet_panecakeswap.svg

<svg width="36" height="36" viewBox="0 0 36 36" fill="none" xmlns="http://www.w3.org/2000/svg">
<g clip-path="url(#clip0_21224_78188)">
<rect width="36" height="36" rx="12" fill="#74D4DB"/>
<g clip-path="url(#clip1_21224_78188)">
<path fill-rule="evenodd" clip-rule="evenodd" d="M10.2322 9.7125C9.861 7.782 11.346 6 13.2765 6C14.9842 6 16.395 7.41075 16.395 9.1185V12.9795C16.8405 12.9795 17.286 12.9053 17.7315 12.9053C18.177 12.9053 18.5482 12.9052 18.9937 12.9795V9.1185C18.9937 7.41075 20.4045 6 22.1122 6C24.0427 6 25.5277 7.782 25.2307 9.7125L24.414 14.2417C27.3097 15.504 29.5372 17.7315 29.5372 20.4788V22.1865C29.5372 24.4883 28.0522 26.4188 25.899 27.681C23.7457 29.0175 20.9242 29.76 17.7315 29.76C14.5387 29.76 11.7172 29.0175 9.564 27.681C7.485 26.4188 6 24.4883 6 22.1865V20.4788C6 17.7315 8.15325 15.504 11.049 14.2417L10.2322 9.7125ZM23.3002 14.8357L24.2655 9.48975C24.4882 8.15325 23.523 6.891 22.1122 6.891C20.9242 6.891 19.959 7.85625 19.959 9.04425V13.9447C19.662 13.8705 19.2907 13.8705 18.9937 13.8705C18.5482 13.8705 18.177 13.7962 17.7315 13.7962C17.286 13.7962 16.8405 13.7962 16.395 13.8705C16.098 13.8705 15.7267 13.9447 15.4297 13.9447V9.1185C15.4297 7.9305 14.4645 6.96525 13.2765 6.96525C11.94 6.96525 10.9005 8.2275 11.1975 9.564L12.1627 14.91C9.04425 16.098 6.96525 18.177 6.96525 20.553V22.2607C6.96525 25.899 11.7915 28.869 17.7315 28.869C23.6715 28.869 28.4977 25.899 28.4977 22.2607V20.553C28.572 18.1027 26.493 16.0238 23.3002 14.8357Z" fill="#633001"/>
<path d="M28.5722 22.1865C28.5722 25.8248 23.7459 28.7948 17.8059 28.7948C11.8659 28.7948 7.03967 25.8248 7.03967 22.1865V20.4788H28.5722V22.1865Z" fill="#FEDC90"/>
<path fill-rule="evenodd" clip-rule="evenodd" d="M11.1977 9.56402C10.9007 8.22752 11.9402 6.96527 13.2767 6.96527C14.4647 6.96527 15.4299 7.93052 15.4299 9.11852V14.019C16.1724 13.9448 16.9149 13.8705 17.7317 13.8705C18.4742 13.8705 19.2167 13.9448 19.9592 14.019V9.11852C19.9592 7.93052 20.9244 6.96527 22.1124 6.96527C23.4489 6.96527 24.4884 8.22752 24.2657 9.56402L23.3004 14.91C26.4189 16.098 28.5722 18.177 28.5722 20.553C28.5722 24.1913 23.7459 27.1613 17.8059 27.1613C11.8659 27.1613 7.03967 24.1913 7.03967 20.553C7.03967 18.177 9.11867 16.098 12.2372 14.91L11.1977 9.56402Z" fill="#D1884F"/>
<path d="M14.7613 20.0332C14.7613 20.9985 14.2416 21.8152 13.5733 21.8152C12.9051 21.8152 12.3853 20.9985 12.3853 20.0332C12.3853 19.068 12.9051 18.2513 13.5733 18.2513C14.2416 18.2513 14.7613 19.068 14.7613 20.0332Z" fill="#633001"/>
<path d="M23.0029 20.0332C23.0029 20.9985 22.4831 21.8152 21.8149 21.8152C21.1466 21.8152 20.6269 20.9985 20.6269 20.0332C20.6269 19.068 21.1466 18.2513 21.8149 18.2513C22.4831 18.2513 23.0029 19.068 23.0029 20.0332Z" fill="#633001"/>
</g>
</g>
<defs>
<clipPath id="clip0_21224_78188">
<rect width="36" height="36" fill="white"/>
</clipPath>
<clipPath id="clip1_21224_78188">
<rect width="24" height="24" fill="white" transform="translate(6 6)"/>
</clipPath>
</defs>
</svg>

<svg xmlns="http://www.w3.org/2000/svg" width="36" height="36" fill="none"><g clip-path="url(#a)"><rect width="36" height="36" fill="#74D4DB" rx="12"/><g clip-path="url(#b)"><path fill="#633001" fill-rule="evenodd" d="M10.232 9.713C9.861 7.782 11.346 6 13.277 6a3.137 3.137 0 0 1 3.118 3.118v3.861c.445 0 .891-.074 1.337-.074s.816 0 1.262.075V9.118A3.137 3.137 0 0 1 22.112 6c1.93 0 3.416 1.782 3.119 3.713l-.817 4.529c2.896 1.262 5.123 3.49 5.123 6.237v1.707c0 2.302-1.485 4.233-3.638 5.495-2.153 1.336-4.975 2.079-8.167 2.079s-6.015-.743-8.168-2.079C7.485 26.419 6 24.488 6 22.186V20.48c0-2.747 2.153-4.975 5.049-6.237zM23.3 14.836l.965-5.346c.223-1.337-.742-2.599-2.153-2.599a2.155 2.155 0 0 0-2.153 2.153v4.9c-.297-.074-.668-.074-.965-.074-.446 0-.817-.074-1.262-.074s-.892 0-1.337.075c-.297 0-.668.074-.965.074V9.118a2.155 2.155 0 0 0-2.153-2.153c-1.337 0-2.376 1.262-2.08 2.599l.966 5.346c-3.119 1.188-5.198 3.267-5.198 5.643v1.708c0 3.638 4.826 6.608 10.767 6.608s10.766-2.97 10.766-6.608v-1.708c.074-2.45-2.005-4.53-5.198-5.717" clip-rule="evenodd"/><path fill="#FEDC90" d="M28.572 22.187c0 3.638-4.826 6.608-10.766 6.608S7.04 25.825 7.04 22.186V20.48h21.532z"/><path fill="#D1884F" fill-rule="evenodd" d="M11.198 9.564c-.297-1.336.742-2.599 2.079-2.599 1.188 0 2.153.966 2.153 2.154v4.9c.742-.074 1.485-.149 2.302-.149.742 0 1.485.075 2.227.149v-4.9c0-1.188.965-2.154 2.153-2.154 1.337 0 2.376 1.263 2.154 2.599L23.3 14.91c3.119 1.188 5.272 3.267 5.272 5.643 0 3.638-4.826 6.608-10.766 6.608S7.04 24.191 7.04 20.553c0-2.376 2.079-4.455 5.197-5.643z" clip-rule="evenodd"/><path fill="#633001" d="M14.761 20.033c0 .965-.52 1.782-1.188 1.782s-1.188-.817-1.188-1.782.52-1.782 1.188-1.782c.669 0 1.188.817 1.188 1.782M23.003 20.033c0 .965-.52 1.782-1.188 1.782s-1.188-.817-1.188-1.782.52-1.782 1.188-1.782 1.188.817 1.188 1.782"/></g></g><defs><clipPath id="a"><path fill="#fff" d="M0 0h36v36H0z"/></clipPath><clipPath id="b"><path fill="#fff" d="M6 6h24v24H6z"/></clipPath></defs></svg>
